X:3123
T: Out on the Ocean
R: Jig
S: Utlärd av Anton Larsson
Z: Karin Arén
M: 6/8
L: 1/8
K: G
D2 B {c}BAG | BdB A2 B | GED G2 A | B(4d/B/A/B/ AGE |
D2 B {c}BAG | BdB A2 B | GED G2 A |1 BG^F  G2 E :|2 BG^F GBd |:
v(e2 {g^f}e) edB | v(e2 {g^f}e) edB | {c}d3 de^f | {^f}g^fe dBA |
G2 A B2 d | (e/f/g) e dBA | GED G2 A |1 BG^F GBd :|1 BG^F G3 |]
(:musicend:)



(:music:)
